X:1
T:Title
%%score { 1 | 2 }
L:1/8
M:3/4
K:Ab
V:1 treble nm="Grand Piano"
V:2 bass 
V:1
 z2 z2[Q:1/4=94] [A,C][B,D] | [CE]3 [CE] [DF][DG] | [CA] [Ec]3 AA | [FA]4 F2 | E4 GA | B3 B =AB | %6
 [Ec] [CA]3 [CA][CG] | [DF]4 [=DB]2 | [DB]4 [A,C][B,D] | [CE]3 [CE] [DF][DG] | %10
 [CA] [Ec]3 [CA][_GA] | [FA]4 [FB]2 | [=Ec]4 [_Ec][Ed] | [Ee]3 [Ec] [DB][EA] | %14
 [DF] [FA]3 [FA][=EB] | [Ec]4 [DB]2 |[M:2/4] [CA]4 |[M:1/4] GA |[M:3/4] B3 =A Bc | [CA] [Ec]3 GA | %20
 B3 =A Bc | [CA]4 cd | e3 f ed | c e3 [Ec][Ec] | [=DB]3 [DB] [DB][Dc] | [EB]4 [A,C][B,D] | %26
 [CE]3 [CE] [DF][DG] | [CA] [Ec]3 [CA][_GA] | [FA]4 [FB]2 | [=Ec]4 [_Ec][Ed] | %30
 [Ee]3 [Ec] [DB][EA] | [DF] [FA]3 [FA][=EB] | [Ec]4 [DB]2 |[M:2/4] [CA]4 |] %34
V:2
 z2 z2 [A,,E,][A,,E,] | [A,,A,]3 [A,,A,] [D,A,][B,,E,] | [A,,E,] [A,,A,]3[K:treble] [A,C][A,C_G] | %3
 [D,D]4 [F,A,D]2 | [A,C]4 [E,B,D][E,A,C] | [E,G,D]3 [E,G,D] [E,_G,C][E,=G,D] | %6
 [A,,A,] [A,,A,]3 [A,,A,][A,,A,] | [D,A,]4 [B,,A,]2 | [E,G,]4 [A,,E,][A,,E,] | %9
 [A,,A,]3 [A,,A,] [D,A,][B,,E,] | [A,,E,] [A,,A,]3 [A,,A,][A,,A,] | [D,A,]4 [D,F,]2 | %12
 [C,G,]4 [A,,A,][B,,G,] | [C,A,]3 [A,,A,] [B,,G,][C,A,] | [D,A,] [D,D]3 [D,A,][D,A,] | %15
 [E,A,]4 [E,G,]2 |[M:2/4] [A,,A,]4 |[M:1/4] [E,B,E][E,CE] |[M:3/4] [E,DE]3 [E,CE] [E,DE][E,G,E] | %19
 [A,,A,] [A,,A,]3 [E,B,E][E,CE] | [E,DE]3 [E,CE] [E,DE][E,G,E] | [A,,A,]4[K:treble] [A,EA][A,DA] | %22
 [A,CA]3 [A,DA] [A,CA][A,DA] | [A,EA] [A,CA]3[K:bass] [A,,A,][A,,A,] | %24
 [B,,A,]3 [B,,A,] [B,,F,][B,,A,] | [E,G,]4 [A,,E,][A,,E,] | [A,,A,]3 [A,,A,] [D,A,][B,,E,] | %27
 [A,,E,] [A,,A,]3 [A,,A,][C,A,] | [D,A,]4 [D,F,]2 | [C,G,]4 [A,,A,][B,,G,] | %30
 [C,A,]3 [A,,A,] [B,,G,][C,A,] | [D,A,] [D,D]3 [D,A,][D,A,] | [E,A,]4 [E,G,]2 |[M:2/4] [A,,A,]4 |] %34

